assets/images/star.svg

<svg width="16" height="16" viewBox="0 0 16 16" fill="none" xmlns="http://www.w3.org/2000/svg">
<path d="M9.15352 2.34016L10.3269 4.68683C10.4869 5.0135 10.9135 5.32683 11.2735 5.38683L13.4002 5.74016C14.7602 5.96683 15.0802 6.9535 14.1002 7.92683L12.4468 9.58016C12.1669 9.86016 12.0135 10.4002 12.1002 10.7868L12.5735 12.8335C12.9469 14.4535 12.0869 15.0802 10.6535 14.2335L8.66018 13.0535C8.30018 12.8402 7.70685 12.8402 7.34018 13.0535L5.34685 14.2335C3.92018 15.0802 3.05352 14.4468 3.42685 12.8335L3.90018 10.7868C3.98685 10.4002 3.83352 9.86016 3.55352 9.58016L1.90018 7.92683C0.92685 6.9535 1.24018 5.96683 2.60018 5.74016L4.72685 5.38683C5.08018 5.32683 5.50685 5.0135 5.66685 4.68683L6.84018 2.34016C7.48018 1.06683 8.52018 1.06683 9.15352 2.34016Z" fill="#E7B308"/>
</svg>

<svg width="16" height="16" fill="none" xmlns="http://www.w3.org/2000/svg"><path d="m9.154 2.34 1.173 2.347c.16.326.587.64.947.7l2.126.353c1.36.227 1.68 1.213.7 2.187L12.447 9.58c-.28.28-.433.82-.347 1.207l.473 2.046c.374 1.62-.486 2.247-1.92 1.4l-1.993-1.18c-.36-.213-.953-.213-1.32 0l-1.993 1.18c-1.427.847-2.293.214-1.92-1.4l.473-2.046c.087-.387-.066-.927-.346-1.207L1.9 7.927c-.973-.973-.66-1.96.7-2.187l2.127-.353c.353-.06.78-.373.94-.7L6.84 2.34c.64-1.273 1.68-1.273 2.314 0Z" fill="#E7B308"/></svg>
